Sources/FrostedUI/Resources/Icons.xcassets/message12.imageset/message-12.svg

<svg width="12" height="12" viewBox="0 0 12 12" fill="none" xmlns="http://www.w3.org/2000/svg" data-fui-icon="true">
  <path
    d="M9.625 1.125C10.5915 1.125 11.375 1.90851 11.375 2.875V8.125C11.375 9.09151 10.5915 9.875 9.625 9.875H7.77832L6.79785 10.6865C6.33328 11.0712 5.66072 11.0693 5.19824 10.6816L4.23535 9.875H2.375C1.40851 9.875 0.625 9.09152 0.625 8.125V2.875C0.625 1.9085 1.4085 1.125 2.375 1.125H9.625ZM2.375 2.625C2.23693 2.625 2.125 2.73693 2.125 2.875V8.125C2.125 8.26308 2.23692 8.375 2.375 8.375H4.32617C4.58312 8.37505 4.83281 8.45436 5.04199 8.60059L5.12891 8.66699L6.00098 9.39844L6.89062 8.66211L6.97754 8.59668C7.18563 8.4529 7.43312 8.37509 7.6875 8.375H9.625C9.76309 8.375 9.875 8.26309 9.875 8.125V2.875C9.875 2.73692 9.76308 2.625 9.625 2.625H2.375ZM3.75 4.75C4.19875 4.75 4.5625 5.11381 4.5625 5.5625C4.5625 6.01119 4.19875 6.375 3.75 6.375C3.30125 6.375 2.9375 6.01119 2.9375 5.5625C2.9375 5.11381 3.30125 4.75 3.75 4.75ZM6 4.75C6.44871 4.75 6.8125 5.11379 6.8125 5.5625C6.8125 6.01121 6.44871 6.375 6 6.375C5.55129 6.375 5.1875 6.01121 5.1875 5.5625C5.1875 5.11379 5.55129 4.75 6 4.75ZM8.25 4.75C8.69871 4.75 9.0625 5.11379 9.0625 5.5625C9.0625 6.01121 8.69871 6.375 8.25 6.375C7.80129 6.375 7.4375 6.01121 7.4375 5.5625C7.4375 5.11379 7.80129 4.75 8.25 4.75Z"
    fill="currentColor"
  />
</svg>

<svg xmlns="http://www.w3.org/2000/svg" width="12" height="12" fill="none" data-fui-icon="true" viewBox="0 0 12 12"><path fill="currentColor" d="M9.625 1.125c.966 0 1.75.784 1.75 1.75v5.25a1.75 1.75 0 0 1-1.75 1.75H7.778l-.98.812a1.25 1.25 0 0 1-1.6-.005l-.963-.807h-1.86a1.75 1.75 0 0 1-1.75-1.75v-5.25c0-.966.784-1.75 1.75-1.75zm-7.25 1.5a.25.25 0 0 0-.25.25v5.25c0 .138.112.25.25.25h1.951c.257 0 .507.08.716.226l.087.066.872.731.89-.736.087-.065a1.25 1.25 0 0 1 .71-.222h1.937a.25.25 0 0 0 .25-.25v-5.25a.25.25 0 0 0-.25-.25zM3.75 4.75a.813.813 0 1 1 0 1.625.813.813 0 0 1 0-1.625m2.25 0a.813.813 0 1 1 0 1.625.813.813 0 0 1 0-1.625m2.25 0a.813.813 0 1 1 0 1.625.813.813 0 0 1 0-1.625"/></svg>
